src/pos-icons/table.svg

<svg height="24" viewBox="0 0 24 24" width="24" xmlns="http://www.w3.org/2000/svg"><path d="m5 4h14a2 2 0 0 1 2 2v12a2 2 0 0 1 -2 2h-14a2 2 0 0 1 -2-2v-12a2 2 0 0 1 2-2m0 4v4h6v-4zm8 0v4h6v-4zm-8 6v4h6v-4zm8 0v4h6v-4z"/></svg>

<?xml version="1.0" encoding="UTF-8"?><!DOCTYPE svg PUBLIC "-//W3C//DTD SVG 1.1//EN" "http://www.w3.org/Graphics/SVG/1.1/DTD/svg11.dtd"><svg xmlns="http://www.w3.org/2000/svg" xmlns:xlink="http://www.w3.org/1999/xlink" version="1.1" id="mdi-table" width="24" height="24" viewBox="0 0 24 24"><path d="M5,4H19A2,2 0 0,1 21,6V18A2,2 0 0,1 19,20H5A2,2 0 0,1 3,18V6A2,2 0 0,1 5,4M5,8V12H11V8H5M13,8V12H19V8H13M5,14V18H11V14H5M13,14V18H19V14H13Z" /></svg>
